images/50320638.svg

<?xml version="1.0" encoding="UTF-8"?>
<svg xmlns="http://www.w3.org/2000/svg" xmlns:xlink="http://www.w3.org/1999/xlink" width="300pt" height="300pt" viewBox="0 0 300 300" version="1.1">
<defs>
<g>
<symbol overflow="visible" id="glyph0-0">
<path style="stroke:none;" d="M 0.796875 2.828125 L 0.796875 -11.28125 L 8.796875 -11.28125 L 8.796875 2.828125 Z M 1.703125 1.9375 L 7.90625 1.9375 L 7.90625 -10.390625 L 1.703125 -10.390625 Z M 1.703125 1.9375 "/>
</symbol>
<symbol overflow="visible" id="glyph0-1">
<path style="stroke:none;" d="M 8.5625 -11.28125 L 8.5625 -9.75 C 7.96875 -10.03125 7.40625 -10.238281 6.875 -10.375 C 6.34375 -10.519531 5.828125 -10.59375 5.328125 -10.59375 C 4.472656 -10.59375 3.8125 -10.425781 3.34375 -10.09375 C 2.875 -9.757812 2.640625 -9.285156 2.640625 -8.671875 C 2.640625 -8.160156 2.796875 -7.769531 3.109375 -7.5 C 3.421875 -7.238281 4.007812 -7.03125 4.875 -6.875 L 5.828125 -6.671875 C 7.003906 -6.453125 7.867188 -6.054688 8.421875 -5.484375 C 8.984375 -4.921875 9.265625 -4.164062 9.265625 -3.21875 C 9.265625 -2.09375 8.882812 -1.234375 8.125 -0.640625 C 7.375 -0.0546875 6.265625 0.234375 4.796875 0.234375 C 4.242188 0.234375 3.65625 0.164062 3.03125 0.03125 C 2.414062 -0.09375 1.773438 -0.273438 1.109375 -0.515625 L 1.109375 -2.140625 C 1.742188 -1.785156 2.367188 -1.515625 2.984375 -1.328125 C 3.597656 -1.148438 4.203125 -1.0625 4.796875 -1.0625 C 5.703125 -1.0625 6.398438 -1.238281 6.890625 -1.59375 C 7.378906 -1.945312 7.625 -2.453125 7.625 -3.109375 C 7.625 -3.679688 7.445312 -4.128906 7.09375 -4.453125 C 6.738281 -4.773438 6.160156 -5.015625 5.359375 -5.171875 L 4.40625 -5.359375 C 3.226562 -5.597656 2.375 -5.96875 1.84375 -6.46875 C 1.320312 -6.96875 1.0625 -7.660156 1.0625 -8.546875 C 1.0625 -9.578125 1.421875 -10.390625 2.140625 -10.984375 C 2.867188 -11.578125 3.875 -11.875 5.15625 -11.875 C 5.695312 -11.875 6.25 -11.820312 6.8125 -11.71875 C 7.382812 -11.625 7.96875 -11.476562 8.5625 -11.28125 Z M 8.5625 -11.28125 "/>
</symbol>
<symbol overflow="visible" id="glyph0-2">
<path style="stroke:none;" d="M 1.578125 -11.671875 L 3.703125 -11.671875 L 8.875 -1.90625 L 8.875 -11.671875 L 10.40625 -11.671875 L 10.40625 0 L 8.28125 0 L 3.109375 -9.765625 L 3.109375 0 L 1.578125 0 Z M 1.578125 -11.671875 "/>
</symbol>
<symbol overflow="visible" id="glyph0-3">
<path style="stroke:none;" d="M 1.578125 -11.671875 L 3.15625 -11.671875 L 3.15625 -6.890625 L 8.890625 -6.890625 L 8.890625 -11.671875 L 10.46875 -11.671875 L 10.46875 0 L 8.890625 0 L 8.890625 -5.5625 L 3.15625 -5.5625 L 3.15625 0 L 1.578125 0 Z M 1.578125 -11.671875 "/>
</symbol>
<symbol overflow="visible" id="glyph1-0">
<path style="stroke:none;" d="M 0.640625 2.296875 L 0.640625 -9.171875 L 7.140625 -9.171875 L 7.140625 2.296875 Z M 1.375 1.578125 L 6.421875 1.578125 L 6.421875 -8.4375 L 1.375 -8.4375 Z M 1.375 1.578125 "/>
</symbol>
<symbol overflow="visible" id="glyph1-1">
<path style="stroke:none;" d="M 2.5 -1.078125 L 6.96875 -1.078125 L 6.96875 0 L 0.953125 0 L 0.953125 -1.078125 C 1.441406 -1.578125 2.101562 -2.25 2.9375 -3.09375 C 3.78125 -3.945312 4.3125 -4.5 4.53125 -4.75 C 4.9375 -5.207031 5.21875 -5.597656 5.375 -5.921875 C 5.539062 -6.242188 5.625 -6.554688 5.625 -6.859375 C 5.625 -7.367188 5.445312 -7.78125 5.09375 -8.09375 C 4.75 -8.40625 4.289062 -8.5625 3.71875 -8.5625 C 3.3125 -8.5625 2.882812 -8.492188 2.4375 -8.359375 C 2 -8.222656 1.523438 -8.007812 1.015625 -7.71875 L 1.015625 -9.015625 C 1.535156 -9.222656 2.019531 -9.378906 2.46875 -9.484375 C 2.914062 -9.597656 3.320312 -9.65625 3.6875 -9.65625 C 4.675781 -9.65625 5.460938 -9.40625 6.046875 -8.90625 C 6.628906 -8.414062 6.921875 -7.757812 6.921875 -6.9375 C 6.921875 -6.550781 6.847656 -6.179688 6.703125 -5.828125 C 6.554688 -5.484375 6.289062 -5.078125 5.90625 -4.609375 C 5.800781 -4.484375 5.460938 -4.125 4.890625 -3.53125 C 4.328125 -2.945312 3.53125 -2.128906 2.5 -1.078125 Z M 2.5 -1.078125 "/>
</symbol>
</g>
</defs>
<g id="surface27889">
<rect x="0" y="0" width="300" height="300" style="fill:rgb(100%,100%,100%);fill-opacity:1;stroke:none;"/>
<path style="fill:none;stroke-width:1.2;stroke-linecap:butt;stroke-linejoin:miter;stroke:rgb(80%,80%,0%);stroke-opacity:1;stroke-miterlimit:10;" d="M 130.863281 209.179688 L 143.550781 194.871094 "/>
<path style="fill:none;stroke-width:1.2;stroke-linecap:butt;stroke-linejoin:miter;stroke:rgb(0%,0%,0%);stroke-opacity:1;stroke-miterlimit:10;" d="M 143.550781 194.871094 L 156.238281 180.558594 "/>
<path style="fill:none;stroke-width:1.2;stroke-linecap:butt;stroke-linejoin:miter;stroke:rgb(0%,0%,0%);stroke-opacity:1;stroke-miterlimit:10;" d="M 95.800781 193.894531 L 113.332031 201.539062 "/>
<path style="fill:none;stroke-width:1.2;stroke-linecap:butt;stroke-linejoin:miter;stroke:rgb(80%,80%,0%);stroke-opacity:1;stroke-miterlimit:10;" d="M 113.332031 201.539062 L 130.863281 209.179688 "/>
<path style=" stroke:none;fill-rule:nonzero;fill:rgb(100%,100%,100%);fill-opacity:1;" d="M 125.863281 199.679688 L 136.863281 199.679688 L 136.863281 218.679688 L 125.863281 218.679688 Z M 125.863281 199.679688 "/>
<g style="fill:rgb(80%,80%,0%);fill-opacity:1;">
  <use xlink:href="#glyph0-1" x="125.863281" y="214.53125"/>
</g>
<path style="fill:none;stroke-width:1.2;stroke-linecap:butt;stroke-linejoin:miter;stroke:rgb(0%,0%,0%);stroke-opacity:1;stroke-miterlimit:10;" d="M 156.238281 180.558594 L 136.855469 147.582031 "/>
<path style="fill:none;stroke-width:1.2;stroke-linecap:butt;stroke-linejoin:miter;stroke:rgb(0%,0%,0%);stroke-opacity:1;stroke-miterlimit:10;" d="M 146.539062 181.820312 L 131.035156 155.441406 "/>
<path style="fill:none;stroke-width:1.2;stroke-linecap:butt;stroke-linejoin:miter;stroke:rgb(0%,0%,0%);stroke-opacity:1;stroke-miterlimit:10;" d="M 156.238281 180.558594 L 194.308594 184.261719 "/>
<path style="fill:none;stroke-width:1.2;stroke-linecap:butt;stroke-linejoin:miter;stroke:rgb(0%,0%,0%);stroke-opacity:1;stroke-miterlimit:10;" d="M 136.855469 147.582031 L 118.179688 151.703125 "/>
<path style="fill:none;stroke-width:1.2;stroke-linecap:butt;stroke-linejoin:miter;stroke:rgb(0%,0%,100%);stroke-opacity:1;stroke-miterlimit:10;" d="M 118.179688 151.703125 L 99.503906 155.824219 "/>
<path style="fill:none;stroke-width:1.2;stroke-linecap:butt;stroke-linejoin:miter;stroke:rgb(0%,0%,0%);stroke-opacity:1;stroke-miterlimit:10;" d="M 136.855469 147.582031 L 152.140625 112.519531 "/>
<path style="fill:none;stroke-width:1.2;stroke-linecap:butt;stroke-linejoin:miter;stroke:rgb(0%,0%,100%);stroke-opacity:1;stroke-miterlimit:10;" d="M 99.503906 155.824219 L 97.652344 174.859375 "/>
<path style="fill:none;stroke-width:1.2;stroke-linecap:butt;stroke-linejoin:miter;stroke:rgb(0%,0%,0%);stroke-opacity:1;stroke-miterlimit:10;" d="M 97.652344 174.859375 L 95.800781 193.894531 "/>
<path style="fill:none;stroke-width:1.2;stroke-linecap:butt;stroke-linejoin:miter;stroke:rgb(0%,0%,100%);stroke-opacity:1;stroke-miterlimit:10;" d="M 108.089844 160.503906 L 106.609375 175.730469 "/>
<path style="fill:none;stroke-width:1.2;stroke-linecap:butt;stroke-linejoin:miter;stroke:rgb(0%,0%,0%);stroke-opacity:1;stroke-miterlimit:10;" d="M 106.609375 175.730469 L 105.128906 190.960938 "/>
<path style=" stroke:none;fill-rule:nonzero;fill:rgb(100%,100%,100%);fill-opacity:1;" d="M 93.503906 146.324219 L 105.503906 146.324219 L 105.503906 165.324219 L 93.503906 165.324219 Z M 93.503906 146.324219 "/>
<g style="fill:rgb(0%,0%,100%);fill-opacity:1;">
  <use xlink:href="#glyph0-2" x="93.503906" y="161.175781"/>
</g>
<path style="fill:none;stroke-width:1.2;stroke-linecap:butt;stroke-linejoin:miter;stroke:rgb(0%,0%,0%);stroke-opacity:1;stroke-miterlimit:10;" d="M 95.800781 193.894531 L 62.824219 213.277344 "/>
<path style="fill:none;stroke-width:1.2;stroke-linecap:butt;stroke-linejoin:miter;stroke:rgb(0%,0%,0%);stroke-opacity:1;stroke-miterlimit:10;" d="M 62.824219 213.277344 L 29.550781 194.410156 "/>
<path style="fill:none;stroke-width:1.2;stroke-linecap:butt;stroke-linejoin:miter;stroke:rgb(0%,0%,0%);stroke-opacity:1;stroke-miterlimit:10;" d="M 152.140625 112.519531 L 190.148438 108.226562 "/>
<path style="fill:none;stroke-width:1.2;stroke-linecap:butt;stroke-linejoin:miter;stroke:rgb(0%,0%,0%);stroke-opacity:1;stroke-miterlimit:10;" d="M 154.933594 103.148438 L 185.339844 99.710938 "/>
<path style="fill:none;stroke-width:1.2;stroke-linecap:butt;stroke-linejoin:miter;stroke:rgb(0%,0%,0%);stroke-opacity:1;stroke-miterlimit:10;" d="M 129.417969 81.75 L 152.140625 112.519531 "/>
<path style="fill:none;stroke-width:1.2;stroke-linecap:butt;stroke-linejoin:miter;stroke:rgb(0%,0%,0%);stroke-opacity:1;stroke-miterlimit:10;" d="M 190.148438 108.226562 L 205.4375 73.164062 "/>
<path style="fill:none;stroke-width:1.2;stroke-linecap:butt;stroke-linejoin:miter;stroke:rgb(0%,0%,0%);stroke-opacity:1;stroke-miterlimit:10;" d="M 205.4375 73.164062 L 182.714844 42.394531 "/>
<path style="fill:none;stroke-width:1.2;stroke-linecap:butt;stroke-linejoin:miter;stroke:rgb(0%,0%,0%);stroke-opacity:1;stroke-miterlimit:10;" d="M 195.921875 75.433594 L 177.746094 50.816406 "/>
<path style="fill:none;stroke-width:1.2;stroke-linecap:butt;stroke-linejoin:miter;stroke:rgb(0%,0%,0%);stroke-opacity:1;stroke-miterlimit:10;" d="M 205.4375 73.164062 L 243.445312 68.871094 "/>
<path style="fill:none;stroke-width:1.2;stroke-linecap:butt;stroke-linejoin:miter;stroke:rgb(0%,0%,0%);stroke-opacity:1;stroke-miterlimit:10;" d="M 182.714844 42.394531 L 144.707031 46.6875 "/>
<path style="fill:none;stroke-width:1.2;stroke-linecap:butt;stroke-linejoin:miter;stroke:rgb(0%,0%,0%);stroke-opacity:1;stroke-miterlimit:10;" d="M 144.707031 46.6875 L 129.417969 81.75 "/>
<path style="fill:none;stroke-width:1.2;stroke-linecap:butt;stroke-linejoin:miter;stroke:rgb(0%,0%,0%);stroke-opacity:1;stroke-miterlimit:10;" d="M 151.425781 53.789062 L 139.199219 81.839844 "/>
<path style="fill:none;stroke-width:1.2;stroke-linecap:butt;stroke-linejoin:miter;stroke:rgb(0%,0%,0%);stroke-opacity:1;stroke-miterlimit:10;" d="M 194.308594 184.261719 L 210.136719 219.082031 "/>
<path style="fill:none;stroke-width:1.2;stroke-linecap:butt;stroke-linejoin:miter;stroke:rgb(0%,0%,0%);stroke-opacity:1;stroke-miterlimit:10;" d="M 204.082031 184.019531 L 216.746094 211.875 "/>
<path style="fill:none;stroke-width:1.2;stroke-linecap:butt;stroke-linejoin:miter;stroke:rgb(0%,0%,0%);stroke-opacity:1;stroke-miterlimit:10;" d="M 216.550781 153.140625 L 194.308594 184.261719 "/>
<path style="fill:none;stroke-width:1.2;stroke-linecap:butt;stroke-linejoin:miter;stroke:rgb(0%,0%,0%);stroke-opacity:1;stroke-miterlimit:10;" d="M 210.136719 219.082031 L 248.207031 222.785156 "/>
<path style="fill:none;stroke-width:1.2;stroke-linecap:butt;stroke-linejoin:miter;stroke:rgb(0%,0%,0%);stroke-opacity:1;stroke-miterlimit:10;" d="M 248.207031 222.785156 L 259.328125 207.226562 "/>
<path style="fill:none;stroke-width:1.2;stroke-linecap:butt;stroke-linejoin:miter;stroke:rgb(0%,0%,100%);stroke-opacity:1;stroke-miterlimit:10;" d="M 259.328125 207.226562 L 270.449219 191.667969 "/>
<path style="fill:none;stroke-width:1.2;stroke-linecap:butt;stroke-linejoin:miter;stroke:rgb(0%,0%,0%);stroke-opacity:1;stroke-miterlimit:10;" d="M 243.109375 214.441406 L 252.003906 201.992188 "/>
<path style="fill:none;stroke-width:1.2;stroke-linecap:butt;stroke-linejoin:miter;stroke:rgb(0%,0%,100%);stroke-opacity:1;stroke-miterlimit:10;" d="M 252.003906 201.992188 L 260.902344 189.546875 "/>
<path style="fill:none;stroke-width:1.2;stroke-linecap:butt;stroke-linejoin:miter;stroke:rgb(0%,0%,0%);stroke-opacity:1;stroke-miterlimit:10;" d="M 248.207031 222.785156 L 256.121094 240.195312 "/>
<path style="fill:none;stroke-width:1.2;stroke-linecap:butt;stroke-linejoin:miter;stroke:rgb(0%,0%,100%);stroke-opacity:1;stroke-miterlimit:10;" d="M 256.121094 240.195312 L 264.035156 257.605469 "/>
<path style="fill:none;stroke-width:1.2;stroke-linecap:butt;stroke-linejoin:miter;stroke:rgb(0%,0%,100%);stroke-opacity:1;stroke-miterlimit:10;" d="M 270.449219 191.667969 L 262.535156 174.257812 "/>
<path style="fill:none;stroke-width:1.2;stroke-linecap:butt;stroke-linejoin:miter;stroke:rgb(0%,0%,0%);stroke-opacity:1;stroke-miterlimit:10;" d="M 262.535156 174.257812 L 254.621094 156.84375 "/>
<path style=" stroke:none;fill-rule:nonzero;fill:rgb(100%,100%,100%);fill-opacity:1;" d="M 264.449219 182.167969 L 276.449219 182.167969 L 276.449219 201.167969 L 264.449219 201.167969 Z M 264.449219 182.167969 "/>
<g style="fill:rgb(0%,0%,100%);fill-opacity:1;">
  <use xlink:href="#glyph0-2" x="264.449219" y="197.019531"/>
</g>
<path style="fill:none;stroke-width:1.2;stroke-linecap:butt;stroke-linejoin:miter;stroke:rgb(0%,0%,0%);stroke-opacity:1;stroke-miterlimit:10;" d="M 254.621094 156.84375 L 216.550781 153.140625 "/>
<path style="fill:none;stroke-width:1.2;stroke-linecap:butt;stroke-linejoin:miter;stroke:rgb(0%,0%,0%);stroke-opacity:1;stroke-miterlimit:10;" d="M 249.941406 165.433594 L 219.484375 162.46875 "/>
<path style=" stroke:none;fill-rule:nonzero;fill:rgb(100%,100%,100%);fill-opacity:1;" d="M 248.035156 246.105469 L 281.035156 246.105469 L 281.035156 269.105469 L 248.035156 269.105469 Z M 248.035156 246.105469 "/>
<g style="fill:rgb(0%,0%,100%);fill-opacity:1;">
  <use xlink:href="#glyph0-2" x="248.035156" y="260.957031"/>
  <use xlink:href="#glyph0-3" x="260.003906" y="260.957031"/>
</g>
<g style="fill:rgb(0%,0%,100%);fill-opacity:1;">
  <use xlink:href="#glyph1-1" x="272.035156" y="265.839844"/>
</g>
</g>
</svg>

<svg xmlns="http://www.w3.org/2000/svg" xmlns:xlink="http://www.w3.org/1999/xlink" width="300pt" height="300pt" viewBox="0 0 300 300"><defs><symbol overflow="visible"><path d="M.797 2.828v-14.11h8V2.83zm.906-.89h6.203v-12.33H1.703zm0 0"/></symbol><symbol overflow="visible" id="a"><path d="M8.563-11.28v1.53c-.594-.28-1.157-.488-1.688-.625-.53-.145-1.047-.22-1.547-.22-.855 0-1.516.17-1.984.5-.47.337-.703.81-.703 1.423 0 .512.157.902.47 1.172.312.262.898.47 1.765.625l.953.203c1.176.22 2.04.617 2.594 1.188.562.562.844 1.32.844 2.265 0 1.126-.383 1.986-1.14 2.58-.75.585-1.86.874-3.33.874-.554 0-1.14-.07-1.765-.203-.616-.124-1.257-.303-1.92-.546V-2.14c.632.355 1.257.624 1.874.812.614.18 1.22.266 1.813.266.906 0 1.6-.176 2.094-.532.49-.35.735-.86.735-1.515 0-.57-.18-1.02-.53-1.343-.357-.32-.935-.563-1.736-.72l-.954-.186c-1.18-.238-2.03-.61-2.562-1.11-.524-.5-.782-1.19-.782-2.077 0-1.03.36-1.844 1.08-2.437.725-.594 1.733-.89 3.014-.89.54 0 1.094.054 1.657.155.57.095 1.156.243 1.75.44zm0 0"/></symbol><symbol overflow="visible" id="b"><path d="M1.578-11.672h2.125l5.172 9.766v-9.766h1.53V0H8.282L3.11-9.766V0H1.577zm0 0"/></symbol><symbol overflow="visible" id="c"><path d="M1.578-11.672h1.578v4.78H8.89v-4.78h1.58V0H8.89v-5.563H3.157V0H1.578zm0 0"/></symbol><symbol overflow="visible"><path d="M.64 2.297v-11.47h6.5v11.47zm.735-.72h5.047V-8.436H1.375zm0 0"/></symbol><symbol overflow="visible" id="d"><path d="M2.5-1.078h4.47V0H.952v-1.078c.488-.5 1.15-1.172 1.985-2.016C3.78-3.944 4.312-4.5 4.53-4.75c.407-.457.69-.848.845-1.172.164-.32.25-.633.25-.937 0-.507-.18-.92-.53-1.234-.345-.312-.806-.47-1.376-.47-.408.002-.837.072-1.283.205-.437.137-.914.352-1.42.64v-1.296c.518-.207 1.003-.363 1.452-.468.444-.114.85-.172 1.217-.172.99 0 1.774.25 2.36.75.582.492.875 1.148.875 1.97 0 .385-.074.756-.22 1.108-.147.344-.413.75-.796 1.22-.105.124-.445.483-1.015 1.077-.562.585-1.36 1.4-2.39 2.452zm0 0"/></symbol></defs><g><path fill="#fff" d="M0 0h300v300H0z"/><path d="M130.863 209.18l12.688-14.31" stroke-width="1.2" stroke="#cc0" stroke-miterlimit="10" fill="none"/><path d="M143.55 194.87l12.688-14.31M95.8 193.895l17.532 7.644" stroke-width="1.2" stroke="#000" stroke-miterlimit="10" fill="none"/><path d="M113.332 201.54l17.53 7.64" stroke-width="1.2" stroke="#cc0" stroke-miterlimit="10" fill="none"/><path d="M125.863 199.68h11v19h-11zm0 0" fill="#fff"/><use xlink:href="#a" x="125.863" y="214.531" fill="#cc0"/><path d="M156.238 180.56l-19.383-32.978M146.54 181.82l-15.505-26.38M156.238 180.56l38.07 3.702M136.855 147.582l-18.675 4.12" stroke-width="1.2" stroke="#000" stroke-miterlimit="10" fill="none"/><path d="M118.18 151.703l-18.676 4.12" stroke-width="1.2" stroke="#00f" stroke-miterlimit="10" fill="none"/><path d="M136.855 147.582l15.286-35.062" stroke-width="1.2" stroke="#000" stroke-miterlimit="10" fill="none"/><path d="M99.504 155.824l-1.852 19.035" stroke-width="1.2" stroke="#00f" stroke-miterlimit="10" fill="none"/><path d="M97.652 174.86l-1.85 19.035" stroke-width="1.2" stroke="#000" stroke-miterlimit="10" fill="none"/><path d="M108.09 160.504l-1.48 15.226" stroke-width="1.2" stroke="#00f" stroke-miterlimit="10" fill="none"/><path d="M106.61 175.73l-1.48 15.23" stroke-width="1.2" stroke="#000" stroke-miterlimit="10" fill="none"/><path d="M93.504 146.324h12v19h-12zm0 0" fill="#fff"/><use xlink:href="#b" x="93.504" y="161.176" fill="#00f"/><path d="M95.8 193.895l-32.976 19.382M62.824 213.277L29.55 194.41M152.14 112.52l38.008-4.293M154.934 103.148l30.406-3.437M129.418 81.75l22.723 30.77M190.148 108.227l15.29-35.063M205.438 73.164l-22.723-30.77M195.922 75.434l-18.176-24.618M205.438 73.164l38.007-4.293M182.715 42.395l-38.008 4.292M144.707 46.688l-15.29 35.062M151.426 53.79L139.2 81.84M194.31 184.262l15.827 34.82M204.082 184.02l12.664 27.855M216.55 153.14l-22.24 31.122M210.137 219.082l38.07 3.703M248.207 222.785l11.12-15.558" stroke-width="1.2" stroke="#000" stroke-miterlimit="10" fill="none"/><path d="M259.328 207.227l11.12-15.56" stroke-width="1.2" stroke="#00f" stroke-miterlimit="10" fill="none"/><path d="M243.11 214.44l8.894-12.448" stroke-width="1.2" stroke="#000" stroke-miterlimit="10" fill="none"/><path d="M252.004 201.992l8.898-12.445" stroke-width="1.2" stroke="#00f" stroke-miterlimit="10" fill="none"/><path d="M248.207 222.785l7.914 17.41" stroke-width="1.2" stroke="#000" stroke-miterlimit="10" fill="none"/><path d="M256.12 240.195l7.915 17.41M270.45 191.668l-7.915-17.41" stroke-width="1.2" stroke="#00f" stroke-miterlimit="10" fill="none"/><path d="M262.535 174.258l-7.914-17.414" stroke-width="1.2" stroke="#000" stroke-miterlimit="10" fill="none"/><path d="M264.45 182.168h12v19h-12zm0 0" fill="#fff"/><use xlink:href="#b" x="264.449" y="197.02" fill="#00f"/><path d="M254.62 156.844l-38.07-3.703M249.94 165.434l-30.456-2.965" stroke-width="1.2" stroke="#000" stroke-miterlimit="10" fill="none"/><path d="M248.035 246.105h33v23h-33zm0 0" fill="#fff"/><g fill="#00f"><use xlink:href="#b" x="248.035" y="260.957"/><use xlink:href="#c" x="260.004" y="260.957"/></g><use xlink:href="#d" x="272.035" y="265.84" fill="#00f"/></g></svg>
